X: 112
T: No_19_Corn_Dance_Song_(i).krn
N: Derived from No_19_Corn_Dance_Song_(i).krn
%%abc-version 2.0
%%abcx-abcm2ps-target-version 5.9.1 (29 Sep 2008)
%%abc-creator hum2abc beta
%%abcx-conversion-date 2019/03/15 08:38:45
%%humdrum-veritas 3266719267
%%humdrum-veritas-data 3312833355
%%linebreak <none>
%%barnumbers 0
L: 1/8
M: 2/4
K: F clef=bass
[K:clef=bass][M:2/4]C2CA,/A,/ [I:setbarnb 2]| 
CC C z | 
C2C/G,/G, | 
G,F,/D,/(F,2 ||  
[M:3/4]C,/)C,C,/ C, z C,/C,3/ ||  
[M:2/4]G,/G,3/ G,/F,/D, | 
F,/F,3/C,2 | 
C,2C,/C,3/ | 
C, z C,/C,3/ :|]  



% FRACTION = 0.499634BUT SHOULD BE 0
